icons/folders/node_modules.expanded.svg

<?xml version="1.0" encoding="UTF-8"?>
<svg width="42px" height="42px" viewBox="0 0 42 42" version="1.1" xmlns="http://www.w3.org/2000/svg" xmlns:xlink="http://www.w3.org/1999/xlink">
    <!-- Generator: Sketch 44.1 (41455) - http://www.bohemiancoding.com/sketch -->
    <desc>Created with Sketch.</desc>
    <defs>
        <rect id="path-1" x="5" y="0" width="30" height="24" rx="2"></rect>
        <path d="M8,3.99339768 C8,3.44475929 8.44746922,3 9.00069463,3 L30.9993054,3 C31.5519738,3 32,3.44494629 32,3.99339768 L32,20.0066023 C32,20.5552407 31.5525308,21 30.9993054,21 L9.00069463,21 C8.44802625,21 8,20.5550537 8,20.0066023 L8,3.99339768 Z" id="path-2"></path>
        <path d="M0.563844219,8.91707034 C0.252441656,7.85830163 0.892191789,7 1.99320024,7 L11.4115169,7 C11.9606232,7 12.6142217,7.39815903 12.8705411,7.88772964 L14.0352206,10.1122704 C14.2919112,10.6025499 14.9471688,11 15.4931737,11 L29.0068263,11 C29.555341,11 30.160696,11.4178096 30.3595877,11.9349279 L34.2836219,22.137417 C34.6792666,23.1660932 34.1021596,24 33.008383,24 L6.99161703,24 C5.89167732,24 4.74517524,23.1335958 4.43615578,22.0829297 L0.563844219,8.91707034 Z" id="path-3"></path>
    </defs>
    <g id="文件夹-(icons/folders-5-10)" stroke="none" stroke-width="1" fill="none" fill-rule="evenodd">
        <g id="NodeJS_打开">
            <g id="Group" transform="translate(1.000000, 9.000000)">
                <g id="Rectangle">
                    <use fill="#80BD06" fill-rule="evenodd" xlink:href="#path-1"></use>
                    <use fill-opacity="0.5" fill="#80BD06" fill-rule="evenodd" style="mix-blend-mode: multiply;" xlink:href="#path-1"></use>
                    <rect stroke-opacity="0" stroke="#000000" stroke-width="1" x="5.5" y="0.5" width="29" height="23" rx="2"></rect>
                </g>
                <g id="Rectangle-2">
                    <use fill="#FFFFFF" fill-rule="evenodd" xlink:href="#path-2"></use>
                    <path stroke-opacity="0" stroke="#000000" stroke-width="1" d="M8.5,3.99339768 L8.5,20.0066023 C8.5,20.2781681 8.72343228,20.5 9.00069463,20.5 L30.9993054,20.5 C31.2769692,20.5 31.5,20.2785103 31.5,20.0066023 L31.5,3.99339768 C31.5,3.72183187 31.2765677,3.5 30.9993054,3.5 L9.00069463,3.5 C8.72303085,3.5 8.5,3.72148969 8.5,3.99339768 Z"></path>
                </g>
                <g id="Rectangle">
                    <use fill="#80BD06" fill-rule="evenodd" xlink:href="#path-3"></use>
                    <path stroke-opacity="0" stroke="#000000" stroke-width="1" d="M1.04352697,8.77598718 L4.91583853,21.9418465 C5.16322921,22.7829748 6.11685784,23.5 6.99161703,23.5 L33.008383,23.5 C33.7534246,23.5 34.0858584,23.0160707 33.8169491,22.3169065 L29.8929149,12.1144175 C29.7681989,11.7901559 29.348192,11.5 29.0068263,11.5 L15.4931737,11.5 C14.7598564,11.5 13.9346384,10.9981317 13.5922594,10.344187 L12.4275798,8.11964626 C12.257193,7.79420709 11.7738319,7.5 11.4115169,7.5 L1.99320024,7.5 C1.22649931,7.5 0.826170775,8.03697612 1.04352697,8.77598718 Z"></path>
                </g>
            </g>
        </g>
    </g>
</svg>

<svg viewBox="0 0 42 42" xmlns="http://www.w3.org/2000/svg" xmlns:xlink="http://www.w3.org/1999/xlink"><defs><rect id="a" x="5" width="30" height="24" rx="2"/><path d="M8 3.993A.997.997 0 0 1 9 3h22c.552 0 1 .445 1 .993v16.014A.997.997 0 0 1 31 21H9c-.552 0-1-.445-1-.993V3.993z" id="b"/><path d="M.564 8.917C.252 7.858.892 7 1.994 7h9.418c.549 0 1.202.398 1.459.888l1.164 2.224c.257.49.912.888 1.458.888h13.514c.548 0 1.154.418 1.353.935l3.924 10.202c.395 1.03-.182 1.863-1.276 1.863H6.992c-1.1 0-2.247-.866-2.556-1.917L.564 8.917z" id="c"/></defs><g fill="none" fill-rule="evenodd"><g transform="translate(1 9)"><use fill="#80BD06" xlink:href="#a"/><use fill-opacity=".5" fill="#80BD06" style="mix-blend-mode:multiply" xlink:href="#a"/><rect x="5.5" y=".5" width="29" height="23" rx="2"/></g><g transform="translate(1 9)"><use fill="#FFF" xlink:href="#b"/><path d="M8.5 3.993v16.014c0 .271.223.493.5.493h22c.277 0 .5-.221.5-.493V3.993A.497.497 0 0 0 31 3.5H9c-.277 0-.5.221-.5.493z"/></g><g transform="translate(1 9)"><use fill="#80BD06" xlink:href="#c"/><path d="M1.044 8.776l3.872 13.166c.247.841 1.2 1.558 2.076 1.558h26.016c.745 0 1.078-.484.809-1.183l-3.924-10.203c-.125-.324-.545-.614-.886-.614H15.493c-.733 0-1.558-.502-1.9-1.156L12.427 8.12c-.17-.326-.654-.62-1.016-.62H1.993c-.767 0-1.167.537-.95 1.276z"/></g></g></svg>
